X:10
T:Ozidanie (monophonic version)
O:Russian
B:Kammen folio #1
R:Waltz
M:3/4
L:1/4
K:F
A |: "Dm"B2A | d2e | f3-|f de | fde | fdf | "A7"e3-|e z A |
"A7"B2A | e2f | g3-|gef | gef | gab | "Dm"a3-|"A7"a/b/a/g/e/A/ |
"Dm"B2A | d2e | f3-|f z d/e/ | f z e/f/ | "A7"g z f/g/ |"Dm"a3-|aba |
"A7"g3-|gag | "Dm"f3-|fgf | "A7"e2b | a2^c \
|1 "Dm"d3-|d "Fine"z A :|2 "Dm"d3-|daf |]
|: "Dm"a3-|aaf | a3-|abg | "Gm"b3-|bbg | b3-|bef |
"A7"g3-|gfg | "Dm"a3-|agf |\
"A7"e-e/a/b/a/ | ^c-c/a/b/a/ |1 "Dm"d3-|daf :|2 "Dm"d3-|dd'c' |]
|: "C7"c'3-|c'bg | "F"a3/2 a/ a | z_e'd' | "D7"d'3-|d'c'a |\
 "Gm"b3/2 b/ b | zga |
 b3-|"C7"bgd' | "F"c'3-|c'af | "C7"c3/2 e/g/b/ | d'2c' \
|1 "F"f3-|fd'c' :|2 "F"f3-|"D.C. al fine"f z A |]
